src/assets/filled/Wallet2.svg

<?xml version="1.0" encoding="UTF-8"?>
<svg width="24" height="24" viewBox="0 0 24 24" xmlns="http://www.w3.org/2000/svg">
 <path d="m22 10.97v2.06c0 0.55-0.44 1-1 1.02h-1.96c-1.08 0-2.07-0.79-2.16-1.87-0.06-0.63 0.18-1.22 0.6-1.63 0.37-0.38 0.88-0.59999 1.44-0.59999h2.08c0.56 0.02 1 0.46999 1 1.02z"/>
 <path d="m20.47 15.55h-1.43c-1.9 0-3.5-1.43-3.66-3.25-0.09-1.04 0.29-2.08 1.05-2.82 0.64-0.66 1.53-1.03 2.49-1.03h1.55c0.29 0 0.53-0.24 0.5-0.53-0.22-2.43-1.83-4.09-4.22-4.37-0.24-0.04-0.49-0.05-0.75-0.05h-9c-0.28 0-0.55 0.02-0.81 0.06-2.55 0.32-4.19 2.22-4.19 4.94v7c0 2.76 2.24 5 5 5h9c2.8 0 4.73-1.75 4.97-4.42 0.03-0.29-0.21-0.53-0.5-0.53zm-7.47-5.8h-6c-0.41 0-0.75-0.34-0.75-0.75s0.34-0.75 0.75-0.75h6c0.41 0 0.75 0.34 0.75 0.75s-0.34 0.75-0.75 0.75z"/>
</svg>

<svg width="24" height="24" viewBox="0 0 24 24"  xmlns="http://www.w3.org/2000/svg">
<path d="M22 10.97V13.03C22 13.58 21.56 14.03 21 14.05H19.04C17.96 14.05 16.97 13.26 16.88 12.18C16.82 11.55 17.06 10.96 17.48 10.55C17.85 10.17 18.36 9.95001 18.92 9.95001H21C21.56 9.97001 22 10.42 22 10.97Z" />
<path d="M20.47 15.55H19.04C17.14 15.55 15.54 14.12 15.38 12.3C15.29 11.26 15.67 10.22 16.43 9.48C17.07 8.82 17.96 8.45 18.92 8.45H20.47C20.76 8.45 21 8.21 20.97 7.92C20.75 5.49 19.14 3.83 16.75 3.55C16.51 3.51 16.26 3.5 16 3.5H7C6.72 3.5 6.45 3.52 6.19 3.56C3.64 3.88 2 5.78 2 8.5V15.5C2 18.26 4.24 20.5 7 20.5H16C18.8 20.5 20.73 18.75 20.97 16.08C21 15.79 20.76 15.55 20.47 15.55ZM13 9.75H7C6.59 9.75 6.25 9.41 6.25 9C6.25 8.59 6.59 8.25 7 8.25H13C13.41 8.25 13.75 8.59 13.75 9C13.75 9.41 13.41 9.75 13 9.75Z" />
</svg>
